X:23
T:Concord Bridge
C:Roy Watrous, 1951
S:The Watrous Book, 1992
M:6/8
L:1/8
Q:1/8=270
K:D
%%MIDI program 72
%%MIDI transpose 8
%%MIDI ratio 3 1
z|A2A B2A|F3 Afe|d2A Bcd|e3 d2e|f2d g2e|afd bge|
fed B2d|A3-A2::f|afd DFA|dAf daf|bge EGB|
Acd e2d|Tf2d Bcd|e2g b2g|afd B2d|A3-A2:|]

